X:92
T:Kiltyfanad Reel
B:NFID.163
092kiltyf
S:F&MB
Z:Robinson/Black
N:Very similar to "Nine Points of Roguery"
L:1/8
M:C
R:reel
Q:360
K:D
DEFD GEFE|Dd (3ddd ABAF|DEFD GFEG|=cedB cGE=C|
DEFD GEFE|Ddcd ABAF|DE (3FED GFEd|cABc dADB||
%B
[=c4E4] [B4G4]|A2BG AGFE|DEFD GFEG|=cedB cGEG|
=cBAc BAGB|Ad^cd fcAF|DE (3FED GFEd|cABc dADB|
=cedB cGEG|A=cBe AGFE|DE (3FED GFEG|=cedB cGEG|
=cBAc BAGB|Ad^cd fdAF|DEFD GFEd|cABc dADB||
%C
d2fa gefd|defg abaf|defa gfga|be (3ede bgec|
d2fa gefc|defg abaf|dgfa gfeg|f2ge fdAG||
%D
(3GGG eG (3FFF dF|EDEG FEDd|(3Bcd ef gfea|fage fdAG-|
(3GGG eG (3FFF dF|EDEG FDEC "_DC"||"LAST TIME" EDCE D4||

%%%

